prod/images/flags-1x1/is.svg

<svg viewBox="0 0 512 512" xmlns="http://www.w3.org/2000/svg" xmlns:xlink="http://www.w3.org/1999/xlink"><clipPath id="a"><path d="m85.4 0h486v486h-486z"/></clipPath><g clip-path="url(#a)" fill-rule="evenodd" stroke-width="0" transform="matrix(1.0535 0 0 1.0535 -90 0)"><path d="m0 0h675v486h-675z" fill="#003897"/><path d="m0 189h189v-189h108v189h378v108h-378v189h-108v-189h-189z" fill="#fff"/><path d="m0 216h216v-216h54v216h405v54h-405v216h-54v-216h-216z" fill="#d72828"/></g></svg>

<svg viewBox="0 0 512 512" xmlns="http://www.w3.org/2000/svg"><clipPath id="a"><path d="M85.4 0h486v486h-486z"/></clipPath><g clip-path="url(#a)" fill-rule="evenodd" stroke-width="0" transform="translate(-90) scale(1.0535)"><path d="M0 0h675v486H0z" fill="#003897"/><path d="M0 189h189V0h108v189h378v108H297v189H189V297H0z" fill="#fff"/><path d="M0 216h216V0h54v216h405v54H270v216h-54V270H0z" fill="#d72828"/></g></svg>
